X: 150
T: REEL: Rip the Calico
C: C: Trad.; S: Bothy Band
C: Set Leaders: Tania, Anton, Sophie
Z: Anton Zille ed., Oleg Naumov arr.; Josh Kane at The Session
N: https://thesession.org/members/26966/sets/92390
R: Reel
M: 4/4
L: 1/8
Q: 1/2=100
K: Dmaj
|:"D"d2 dc defd|"G"ed B/c/d "A"egfe|"D"~d3c defd|"G"efdB "A"~A3B:||
|:"G"dB~B2 gefd|"A"ed B/c/d egfe|"G"dB~B2 gefd|1 "A"efdB ~A3B:|2 "A"efdB ~A3e||
"D"faaf gefd|"G"ed B/c/d "A"egfe|"D"fa~a2 gefd|"G"efdB "A"~A3e|
"D"~a3f gefd|"G"ed B/c/d "A"egfe|"D"fa~a2 bfaf|"G"e2 ef "A"g/f/e fe||

